!!!COM: Schubert, Franz Peter
!!!CDT: 1797-1828
!!!OTL: Der Musensohn
!!!OPS: Opus 92
!!!ONM: No. 1
!!!SCT: DV 764
!!!YOR: Franz Schubert: Selected songs
!!!PPE: Max Friedlaender
!!!PSR: C.F. Peters 
!!!PSP: Frankfurt, London, New York
!!!PSD: n.d.
!!!PPG: pp.52-53
!!!ODT: 1822///
!!!ONB: Leading and trailing bars of rest have been deleted.
**kern
*M6/8
*MM[Ziemlich lebhaft]
*G:
*k[f#]
=1
4.r
4r
8b
=2
4b
8b
4b
8b
=3
4.dd
4g
8dd
=4
4ee
8ee
4gg
8ee
=5
4.dd
4b
8b
=6
4cc
8b
4a
8dd
=7
4.b
4r
8b
=8
4cc
8b
(8a
8ee)
8dd
=9
4.g
4r
8b
=10
4b
8b
4b
8b
=11
4.dd
4g
8dd
=12
4ee
8ee
4gg
8ee
=13
4.dd
4b
8b
=14
4cc#
8cc#
(8cc#
8b)
8a
=15
[4.dd
4dd]
8dd
=16
4ee
8ee
4ee
8ee
=17
4.ff#
4gg
8b
=18
4dd
8b
4cc
8f#
=19
4g
8r
4.r
=20
2.r
=21
2.r
=22
2.r
=23
2.r
=24
4.r
4r
8b
=25
*B:
*k[f#c#g#d#a#]
4b
8b
4b
8b
=26
4.a#
4b
8f#
=27
4f#
8g#
4a
8b
=28
4.cc#
4b
8dd#
=29
4.ee
4.dd#
=30
4.cc#
(4dd#
8b)
=31
4.cc#
4.r
=32
4.r
4r
8f#
=33
4b
8b
(8dd#
8cc#)
8b
=34
4.a#
4b
8f#
=35
4f#
8g#
4a#
8b
=36
4.cc#
4b
8dd#
=37
4.ee
4.dd#
=38
4.cc#
(4dd#
8b)
=39
4.cc#
4r
8dd#
=40
(4ff#
8ee)
4.dd#
=41
4.cc#
(4dd#
8b)
=42
[4.dd#
4dd#]
8cc#
=43
4.b
4.r
=44
4.r
4r
8b
=45
*G:
*k[f#]
4b
8b
4b
8b
=46
4.dd
4g
8dd
=47
4ee
8ee
4gg
8ee
=48
4.dd
4b
8b
=49
4cc
8b
4a
8dd
=50
4.b
4r
8b
=51
4cc
8b
(8a
8ee)
8dd
=52
4g
8r
4r
8b
=53
4b
8b
4b
8b
=54
4.dd
4g
8dd
=55
4ee
8ee
4gg
8ee
=56
4.dd
4b
8b
=57
4cc#
8cc#
(8cc#
8b)
8a
=58
[4.dd
4dd]
8dd
=59
4ee
8ee
4ee
8ee
=60
4.ff#
4gg
8b
=61
4dd
8b
4cc
8f#
=62
4g
8r
4.r
=63
2.r
=64
2.r
=65
2.r
=66
2.r
=67
4.r
4r
8b
=68
*B:
*k[f#c#g#d#a#]
4b
8b
4b
8b
=69
4.a#
4b
8f#
=70
4f#
8g#
4a#
8b
=71
4.cc#
4b
8dd#
=72
4.ee
4.dd#
=73
4.cc#
(4dd#
8b)
=74
4.cc#
4.r
=75
4.r
4r
8f#
=76
4b
8b
(8dd#
8cc#)
8b
=77
4.a#
4b
8f#
=78
4f#
8g#
4a#
8b
=79
4.cc#
4b
8dd#
=80
4.ee
4.dd#
=81
4.cc#
(4dd#
8b)
=82
4.cc#
4r
8dd#
=83
(4ff#
8ee)
4.dd#
=84
4.cc#
(4dd#
8b)
=85
[4.dd#
4dd#]
8cc#
=86
4b
8r
4.r
=87
4.r
4r
8b
=88
*G:
*k[f#]
4b
8b
4b
8b
=89
4.dd
4g
8dd
=90
4ee
8ee
4gg
8ee
=91
4.dd
4b
8b
=92
4cc
8b
4a
8dd
=93
4.b
4r
8b
=94
4cc
8b
(8a
8ee)
8dd
=95
4g
8r
4r
8b
=96
4b
8b
4b
8b
=97
4.dd
4g
8dd
=98
4ee
8ee
4gg
8ee
=99
4.dd
4b
8b
=100
4cc#
8cc#
(8cc#
8b)
8a
=101
[4.dd
4dd]
8dd
=102
4ee
8ee
4ee
8ee
=103
4.ff#
4gg
8b
=104
4dd
8b
4cc
8f#
=105
4g
8r
4.r
==
*-
!!!ENC: David Huron
!!!EMD: Paul von Hippel updated this file in the following ways (1998/9/2,21-22/):
!!!EMD:  (1) changed the representation of slurs from curly braces to parentheses 
!!!EMD:  (2) changed freeform comments into reference records and tandem interpretations
!!!EMD:  (3) changed final barline from quadruple (====) to double (==)
!!!EMD:  (4) added key signatures, key designations, and tempi
!!!EEV: Version 2.0
